X:1
T:Miss Grace Menzies
T:Miss Grace Menzies
T:William Marshall
C:William Marshall
%%score { ( 1 2 ) ( 3 4 ) }
L:1/8
M:2/2
K:F
V:1 treble 
V:2 treble 
V:3 bass 
V:4 bass 
V:1
 f | c<F c>A c<F c>A | c<F c>A{AB} c2 ce | f<a d>f c<f A<f | GG B>c{Bc} d2 d>f | c<F c>A c<F c>A | %6
 c<F c>A{AB} c2 ce | f<a d>f c<f A<f | GG B>c{Bc} d2 d |] f | c<f Af c<f A<f | %11
 c<f A<B{AB} c2 (cf) | c<f A<f c<f a>g | f<d c>A AGG>f | c<f A<f c<f A<f | c<f A<B{AB} c2 (ce) | %16
 f<a d>f c<f A<f | GG B>c{Bc} d2 d |] %18
V:2
 x | x8 | x8 | x8 | E2 F2 F2 F2 | x8 | x8 | x8 | E2 F2 F2 F |] x | x8 | x8 | x8 | x8 | x8 | x8 | %16
 x8 | E2 F2 F2 F |] %18
V:3
 z | [Ff]2 [Ff]2 [Ff]2 [Ff]2 | [Ff]2 [Ff]2 [Ff]2 [Bb]2 | [Aa]2 [Bb]2 [Aa]2 [Ff]2 | c'2 d'c' b2 b2 | %5
 [Ff]2 [Ff]2 [Ff]2 [Ff]2 | [Ff]2 [Ff]2 [Ff]2 [Bb]2 | [Aa]2 [Bb]2 [Aa]2 [Ff]2 | c'2 d'c' b2 b |] z | %10
 [fac']2 [fac']2 [fac']2 [fac']2 | [fac']2 [fac']2 [fac']2 [fac']2 | [fac']2 [fac']2 [fa]2 [fc']2 | %13
 d'b a2 c'2 c' z | [fac']2 [fac']2 [fac']2 [fac']2 | [fac']2 [fac']2 [fac']2 [Bb]2 | %16
 [Aa]2 [Bb]2 [Aa]2 [Ff]2 | c'2 d'>c' b2 b |] %18
V:4
 x | x8 | x8 | x8 | C,2 F,2 F,2 B,,2 | x8 | x8 | x8 | C,2 F,2 F,2 B,, |] x | x8 | x8 | x8 | %13
 F,2 F,2 C,2 C, z | x8 | x8 | x8 | C,2 F,2 F,2 B,, |] %18

